elementary-xfce/mimes/64/application-javascript.svg

<?xml version="1.0" encoding="UTF-8" standalone="no"?>
<svg
   id="svg3266"
   height="64"
   width="64"
   version="1.1"
   sodipodi:docname="application-javascript.svg"
   inkscape:version="1.1.1 (3bf5ae0d25, 2021-09-20)"
   xmlns:inkscape="http://www.inkscape.org/namespaces/inkscape"
   xmlns:sodipodi="http://sodipodi.sourceforge.net/DTD/sodipodi-0.dtd"
   xmlns:xlink="http://www.w3.org/1999/xlink"
   xmlns="http://www.w3.org/2000/svg"
   xmlns:svg="http://www.w3.org/2000/svg"
   xmlns:rdf="http://www.w3.org/1999/02/22-rdf-syntax-ns#"
   xmlns:cc="http://creativecommons.org/ns#"
   xmlns:dc="http://purl.org/dc/elements/1.1/">
  <sodipodi:namedview
     id="namedview42"
     pagecolor="#ffffff"
     bordercolor="#666666"
     borderopacity="1.0"
     inkscape:pageshadow="2"
     inkscape:pageopacity="0.0"
     inkscape:pagecheckerboard="0"
     showgrid="false"
     inkscape:zoom="10.65625"
     inkscape:cx="31.296188"
     inkscape:cy="32"
     inkscape:window-width="1317"
     inkscape:window-height="890"
     inkscape:window-x="986"
     inkscape:window-y="68"
     inkscape:window-maximized="0"
     inkscape:current-layer="svg3266" />
  <defs
     id="defs3268">
    <linearGradient
       gradientTransform="matrix(1.0843523,0,0,1.1997367,79.550862,-4.1628601)"
       gradientUnits="userSpaceOnUse"
       xlink:href="#linearGradient3104-6"
       id="linearGradient3158"
       y2="2.9062471"
       x2="-51.786404"
       y1="50.786446"
       x1="-51.786404" />
    <linearGradient
       id="linearGradient3104-6">
      <stop
         offset="0"
         style="stop-color:#000000;stop-opacity:0.31782946"
         id="stop3106-3" />
      <stop
         offset="1"
         style="stop-color:#000000;stop-opacity:0.24031007"
         id="stop3108-9" />
    </linearGradient>
    <linearGradient
       gradientTransform="matrix(1.2162162,0,0,1.5405376,2.8108184,-6.9729501)"
       gradientUnits="userSpaceOnUse"
       xlink:href="#linearGradient3977-4"
       id="linearGradient3161"
       y2="42.100208"
       x2="23.99999"
       y1="5.8641062"
       x1="23.99999" />
    <linearGradient
       id="linearGradient3977-4">
      <stop
         offset="0"
         style="stop-color:#ffffff;stop-opacity:1"
         id="stop3979-7" />
      <stop
         offset="0"
         style="stop-color:#ffffff;stop-opacity:0.23529412"
         id="stop3981-6" />
      <stop
         offset="1"
         style="stop-color:#ffffff;stop-opacity:0.15686275"
         id="stop3983-5" />
      <stop
         offset="1"
         style="stop-color:#ffffff;stop-opacity:0.39215687"
         id="stop3985-6" />
    </linearGradient>
    <linearGradient
       gradientTransform="matrix(1.3142827,0,0,1.2602393,0.4572141,-2.1793201)"
       gradientUnits="userSpaceOnUse"
       xlink:href="#linearGradient3600-9"
       id="linearGradient3164"
       y2="47.013336"
       x2="25.132275"
       y1="0.98520643"
       x1="25.132275" />
    <linearGradient
       id="linearGradient3600-9">
      <stop
         offset="0"
         style="stop-color:#f4f4f4;stop-opacity:1"
         id="stop3602-3" />
      <stop
         offset="1"
         style="stop-color:#dbdbdb;stop-opacity:1"
         id="stop3604-7" />
    </linearGradient>
    <radialGradient
       gradientTransform="matrix(0.03132633,0,0,0.02058823,35.220859,49.45142)"
       gradientUnits="userSpaceOnUse"
       xlink:href="#linearGradient5060"
       id="radialGradient3167"
       fy="486.64789"
       fx="605.71429"
       r="117.14286"
       cy="486.64789"
       cx="605.71429" />
    <linearGradient
       id="linearGradient5060">
      <stop
         offset="0"
         style="stop-color:#000000;stop-opacity:1"
         id="stop5062" />
      <stop
         offset="1"
         style="stop-color:#000000;stop-opacity:0"
         id="stop5064" />
    </linearGradient>
    <radialGradient
       gradientTransform="matrix(-0.03132632,0,0,0.02058823,28.779136,49.45142)"
       gradientUnits="userSpaceOnUse"
       xlink:href="#linearGradient5060"
       id="radialGradient3170"
       fy="486.64789"
       fx="605.71429"
       r="117.14286"
       cy="486.64789"
       cx="605.71429" />
    <linearGradient
       id="linearGradient5048">
      <stop
         offset="0"
         style="stop-color:#000000;stop-opacity:0"
         id="stop5050" />
      <stop
         offset="0.5"
         style="stop-color:#000000;stop-opacity:1"
         id="stop5056" />
      <stop
         offset="1"
         style="stop-color:#000000;stop-opacity:0"
         id="stop5052" />
    </linearGradient>
    <linearGradient
       gradientTransform="matrix(0.09153846,0,0,0.02058823,-1.084616,49.45142)"
       gradientUnits="userSpaceOnUse"
       xlink:href="#linearGradient5048"
       id="linearGradient3264"
       y2="609.50507"
       x2="302.85715"
       y1="366.64789"
       x1="302.85715" />
    <radialGradient
       r="12.671875"
       fy="16.231987"
       fx="16.219349"
       cy="16.231987"
       cx="16.219349"
       gradientTransform="matrix(0,10.793779,-13.095023,0,227.3392,-252.78652)"
       gradientUnits="userSpaceOnUse"
       id="radialGradient4873-8"
       xlink:href="#linearGradient5301" />
    <linearGradient
       id="linearGradient5301">
      <stop
         offset="0"
         style="stop-color:#7ef8bd;stop-opacity:1"
         id="stop5303" />
      <stop
         offset="0.26238"
         style="stop-color:#4fe3aa;stop-opacity:1"
         id="stop5305" />
      <stop
         offset="0.66093999"
         style="stop-color:#23b78b;stop-opacity:1"
         id="stop5307" />
      <stop
         offset="1"
         style="stop-color:#0d7a7e;stop-opacity:1"
         id="stop5309" />
    </linearGradient>
  </defs>
  <metadata
     id="metadata3271">
    <rdf:RDF>
      <cc:Work
         rdf:about="">
        <dc:format>image/svg+xml</dc:format>
        <dc:type
           rdf:resource="http://purl.org/dc/dcmitype/StillImage" />
      </cc:Work>
    </rdf:RDF>
  </metadata>
  <rect
     width="44.199997"
     height="5"
     x="9.8999996"
     y="57.000004"
     id="rect2879"
     style="display:inline;overflow:visible;visibility:visible;opacity:0.15;fill:url(#linearGradient3264);fill-opacity:1;fill-rule:nonzero;stroke:none;stroke-width:1;marker:none" />
  <path
     d="m 9.9,57.00022 c 0,0 0,4.9997 0,4.9997 -1.6132281,0.01 -3.9,-1.1202 -3.9,-2.5002 0,-1.38 1.8002408,-2.4995 3.9,-2.4995 z"
     id="path2881"
     style="display:inline;overflow:visible;visibility:visible;opacity:0.15;fill:url(#radialGradient3170);fill-opacity:1;fill-rule:nonzero;stroke:none;stroke-width:1;marker:none" />
  <path
     d="m 54.099999,57.00022 c 0,0 0,4.9997 0,4.9997 C 55.713227,62.00992 58,60.87972 58,59.49972 c 0,-1.38 -1.800241,-2.4995 -3.900001,-2.4995 z"
     id="path2883"
     style="display:inline;overflow:visible;visibility:visible;opacity:0.15;fill:url(#radialGradient3167);fill-opacity:1;fill-rule:nonzero;stroke:none;stroke-width:1;marker:none" />
  <path
     d="m 9,0.9998799 c 10.540935,0 45.999945,0.004 45.999945,0.004 L 55,59.00002 c 0,0 -30.666666,0 -46,0 0,-19.3334 0,-38.6665 0,-57.9998201 z"
     id="path4160-6"
     style="display:inline;fill:url(#linearGradient3164);fill-opacity:1;stroke:none" />
  <path
     d="m 54.499999,58.50002 -44.9999992,0 0,-57.0000401 44.9999992,0 z"
     id="rect6741-1-8"
     style="fill:none;stroke:url(#linearGradient3161);stroke-width:1;stroke-linecap:round;stroke-linejoin:miter;stroke-miterlimit:4;stroke-dasharray:none;stroke-dashoffset:0;stroke-opacity:1" />
  <path
     d="m 8.4999684,0.4998999 c 10.7700936,0 47.0000286,0.004 47.0000286,0.004 l 4.9e-5,58.9962201 c 0,0 -31.333384,0 -47.0000776,0 0,-19.6668 0,-39.3334 0,-58.9999701 z"
     id="path4160-6-1"
     style="display:inline;fill:none;stroke:url(#linearGradient3158);stroke-width:0.9999218;stroke-linecap:butt;stroke-linejoin:round;stroke-miterlimit:4;stroke-dasharray:none;stroke-dashoffset:0;stroke-opacity:1" />
  <path
     id="text5051"
     d="m 26.998266,18.627 a 1.3276031,1.323992 0 0 0 -1.328125,1.324219 1.3276031,1.323992 0 0 0 1.328125,1.324219 1.3276031,1.323992 0 0 0 1.328125,-1.324219 A 1.3276031,1.323992 0 0 0 26.998266,18.627 Z m -0.998047,4.373047 v 15.310547 c 0,0.67781 0.009,1.180594 -0.279297,1.507812 -0.280473,0.33501 -0.72434,0.501953 -1.332031,0.501953 -0.521991,0 -1.050318,-0.0766 -1.587891,-0.232421 v 1.576171 c 0.459664,0.194773 1.058691,0.292969 1.798828,0.292969 2.329484,0 3.400391,-1.262852 3.400391,-3.787109 V 23.000047 Z m 9.769531,0.166016 c -1.480274,0 -2.64493,0.302464 -3.49414,0.910156 -0.84921,0.5999 -1.275391,1.422814 -1.275391,2.466797 0,0.584318 0.121762,1.087103 0.363281,1.507812 0.249309,0.42071 0.622476,0.797803 1.121094,1.132813 0.50641,0.327218 1.356818,0.714121 2.548828,1.158203 1.254338,0.483037 2.094938,0.903337 2.523438,1.261719 0.436291,0.350591 0.654296,0.774819 0.654297,1.273437 0,0.662228 -0.272996,1.157157 -0.81836,1.484375 -0.545365,0.319428 -1.323118,0.478516 -2.335937,0.478516 -0.654437,0 -1.335949,-0.08839 -2.044922,-0.267578 -0.701182,-0.179191 -1.361081,-0.424692 -1.976563,-0.736328 v 1.798828 c 0.950491,0.537573 2.27619,0.80664 3.97461,0.80664 1.604929,0 2.850117,-0.324057 3.738281,-0.970703 0.888165,-0.646646 1.333984,-1.565802 1.333984,-2.757812 0,-0.84921 -0.269067,-1.554289 -0.80664,-2.115235 -0.529782,-0.560946 -1.55499,-1.116767 -3.074219,-1.669922 -1.10631,-0.412918 -1.854596,-0.72912 -2.244141,-0.947265 -0.389546,-0.218146 -0.674324,-0.447935 -0.853515,-0.689453 -0.1714,-0.241519 -0.25586,-0.534153 -0.25586,-0.876954 0,-0.506409 0.233717,-0.903142 0.701172,-1.191406 0.467454,-0.288264 1.16075,-0.433593 2.080078,-0.433594 1.043982,0 2.20864,0.26514 3.494141,0.794922 l 0.689453,-1.576172 C 38.496055,23.446915 37.148742,23.166063 35.76975,23.166063 Z"
     style="color:#000000;font-style:normal;font-variant:normal;font-weight:normal;font-stretch:normal;font-size:23.9337px;line-height:125%;font-family:'Open Sans';-inkscape-font-specification:'Open Sans';text-align:center;letter-spacing:0px;word-spacing:0px;text-anchor:middle;clip-rule:nonzero;display:inline;overflow:visible;visibility:visible;isolation:auto;mix-blend-mode:normal;color-interpolation:sRGB;color-interpolation-filters:linearRGB;solid-color:#000000;solid-opacity:1;fill:url(#radialGradient4873-8);fill-opacity:1;fill-rule:nonzero;stroke:none;stroke-width:1;stroke-linecap:butt;stroke-linejoin:round;stroke-miterlimit:4;stroke-dasharray:none;stroke-dashoffset:0;stroke-opacity:1;marker:none;color-rendering:auto;image-rendering:auto;shape-rendering:auto;text-rendering:auto;enable-background:accumulate" />
</svg>

<?xml version="1.0" encoding="UTF-8" standalone="no"?>
<svg
   xmlns:dc="http://purl.org/dc/elements/1.1/"
   xmlns:cc="http://creativecommons.org/ns#"
   xmlns:rdf="http://www.w3.org/1999/02/22-rdf-syntax-ns#"
   xmlns:svg="http://www.w3.org/2000/svg"
   xmlns="http://www.w3.org/2000/svg"
   xmlns:xlink="http://www.w3.org/1999/xlink"
   id="svg3130"
   height="64"
   width="64"
   version="1.1">
  <defs
     id="defs3132">
    <linearGradient
       id="linearGradient5301">
      <stop
         offset="0"
         style="stop-color:#7ef8bd;stop-opacity:1"
         id="stop5303" />
      <stop
         offset="0.26238"
         style="stop-color:#4fe3aa;stop-opacity:1"
         id="stop5305" />
      <stop
         offset="0.66093999"
         style="stop-color:#23b78b;stop-opacity:1"
         id="stop5307" />
      <stop
         offset="1"
         style="stop-color:#0d7a7e;stop-opacity:1"
         id="stop5309" />
    </linearGradient>
    <linearGradient
       id="linearGradient4338">
      <stop
         id="stop4340"
         style="stop-color:#ffffff;stop-opacity:1"
         offset="0" />
      <stop
         id="stop4342"
         style="stop-color:#ffffff;stop-opacity:0.23529412"
         offset="0" />
      <stop
         id="stop4344"
         style="stop-color:#ffffff;stop-opacity:0.15686275"
         offset="1" />
      <stop
         id="stop4346"
         style="stop-color:#ffffff;stop-opacity:0.39215687"
         offset="1" />
    </linearGradient>
    <linearGradient
       id="linearGradient3104-6">
      <stop
         offset="0"
         style="stop-color:#000000;stop-opacity:0.31782946"
         id="stop3106-3" />
      <stop
         offset="1"
         style="stop-color:#000000;stop-opacity:0.24031007"
         id="stop3108-9" />
    </linearGradient>
    <linearGradient
       id="linearGradient3600-9">
      <stop
         offset="0"
         style="stop-color:#f4f4f4;stop-opacity:1"
         id="stop3602-3" />
      <stop
         offset="1"
         style="stop-color:#dbdbdb;stop-opacity:1"
         id="stop3604-7" />
    </linearGradient>
    <radialGradient
       gradientTransform="matrix(0.03132633,0,0,0.02058823,35.220859,49.45142)"
       gradientUnits="userSpaceOnUse"
       xlink:href="#linearGradient5060"
       id="radialGradient3057"
       fy="486.64789"
       fx="605.71429"
       r="117.14286"
       cy="486.64789"
       cx="605.71429" />
    <linearGradient
       id="linearGradient5060">
      <stop
         offset="0"
         style="stop-color:#000000;stop-opacity:1"
         id="stop5062" />
      <stop
         offset="1"
         style="stop-color:#000000;stop-opacity:0"
         id="stop5064" />
    </linearGradient>
    <radialGradient
       gradientTransform="matrix(-0.03132632,0,0,0.02058823,28.779136,49.45142)"
       gradientUnits="userSpaceOnUse"
       xlink:href="#linearGradient5060"
       id="radialGradient3060"
       fy="486.64789"
       fx="605.71429"
       r="117.14286"
       cy="486.64789"
       cx="605.71429" />
    <linearGradient
       id="linearGradient5048">
      <stop
         offset="0"
         style="stop-color:#000000;stop-opacity:0"
         id="stop5050" />
      <stop
         offset="0.5"
         style="stop-color:#000000;stop-opacity:1"
         id="stop5056" />
      <stop
         offset="1"
         style="stop-color:#000000;stop-opacity:0"
         id="stop5052" />
    </linearGradient>
    <linearGradient
       gradientTransform="matrix(0.09153846,0,0,0.02058823,-1.084616,49.45142)"
       gradientUnits="userSpaceOnUse"
       xlink:href="#linearGradient5048"
       id="linearGradient3128"
       y2="609.50507"
       x2="302.85715"
       y1="366.64789"
       x1="302.85715" />
    <linearGradient
       y2="47.013336"
       x2="25.132275"
       y1="0.98520643"
       x1="25.132275"
       gradientTransform="matrix(1.3142827,0,0,1.2602393,0.4572141,-2.1793201)"
       gradientUnits="userSpaceOnUse"
       id="linearGradient4322"
       xlink:href="#linearGradient3600-9" />
    <linearGradient
       y2="42.175503"
       x2="23.99999"
       y1="5.8245578"
       x1="23.99999"
       gradientTransform="matrix(1.2162162,0,0,1.5405376,2.8108184,-6.9729501)"
       gradientUnits="userSpaceOnUse"
       id="linearGradient4324"
       xlink:href="#linearGradient4338" />
    <linearGradient
       y2="2.9062471"
       x2="-51.786404"
       y1="50.786446"
       x1="-51.786404"
       gradientTransform="matrix(1.0843523,0,0,1.1997367,79.550862,-4.1628601)"
       gradientUnits="userSpaceOnUse"
       id="linearGradient4326"
       xlink:href="#linearGradient3104-6" />
    <radialGradient
       r="12.671875"
       fy="16.231987"
       fx="16.219349"
       cy="16.231987"
       cx="16.219349"
       gradientTransform="matrix(0,10.793779,-13.095023,0,227.33898,-252.78657)"
       gradientUnits="userSpaceOnUse"
       id="radialGradient4873-8"
       xlink:href="#linearGradient5301" />
  </defs>
  <metadata
     id="metadata3135">
    <rdf:RDF>
      <cc:Work
         rdf:about="">
        <dc:format>image/svg+xml</dc:format>
        <dc:type
           rdf:resource="http://purl.org/dc/dcmitype/StillImage" />
        <dc:title />
      </cc:Work>
    </rdf:RDF>
  </metadata>
  <rect
     width="44.199997"
     height="5"
     x="9.8999996"
     y="57.000004"
     id="rect2879"
     style="display:inline;overflow:visible;visibility:visible;opacity:0.3;fill:url(#linearGradient3128);fill-opacity:1;fill-rule:nonzero;stroke:none;stroke-width:1;marker:none" />
  <path
     d="m 9.9,57.00022 c 0,0 0,4.9997 0,4.9997 -1.6132281,0.01 -3.9,-1.1202 -3.9,-2.5002 0,-1.38 1.8002408,-2.4995 3.9,-2.4995 z"
     id="path2881"
     style="display:inline;overflow:visible;visibility:visible;opacity:0.3;fill:url(#radialGradient3060);fill-opacity:1;fill-rule:nonzero;stroke:none;stroke-width:1;marker:none" />
  <path
     d="m 54.099999,57.00022 c 0,0 0,4.9997 0,4.9997 C 55.713227,62.00992 58,60.87972 58,59.49972 c 0,-1.38 -1.800241,-2.4995 -3.900001,-2.4995 z"
     id="path2883"
     style="display:inline;overflow:visible;visibility:visible;opacity:0.3;fill:url(#radialGradient3057);fill-opacity:1;fill-rule:nonzero;stroke:none;stroke-width:1;marker:none" />
  <path
     d="m 9,0.9998799 c 10.540935,0 45.999945,0.004 45.999945,0.004 L 55,59.00002 c 0,0 -30.666666,0 -46,0 0,-19.3334 0,-38.6665 0,-57.9998201 z"
     id="path4160-6"
     style="display:inline;fill:url(#linearGradient4322);fill-opacity:1;stroke:none" />
  <path
     d="m 54.499999,58.50002 -44.9999992,0 0,-57.0000401 44.9999992,0 z"
     id="rect6741-1-8"
     style="fill:none;stroke:url(#linearGradient4324);stroke-width:1;stroke-linecap:round;stroke-linejoin:miter;stroke-miterlimit:4;stroke-dasharray:none;stroke-dashoffset:0;stroke-opacity:1" />
  <path
     d="m 8.4999684,0.4998999 c 10.7700936,0 47.0000286,0.004 47.0000286,0.004 l 4.9e-5,58.9962201 c 0,0 -31.333384,0 -47.0000776,0 0,-19.6668 0,-39.3334 0,-58.9999701 z"
     id="path4160-6-1"
     style="display:inline;fill:none;stroke:url(#linearGradient4326);stroke-width:0.9999218;stroke-linecap:butt;stroke-linejoin:round;stroke-miterlimit:4;stroke-dasharray:none;stroke-dashoffset:0;stroke-opacity:1" />
  <path
     id="text5051"
     d="M 26.998047 18.626953 A 1.3276031 1.323992 0 0 0 25.669922 19.951172 A 1.3276031 1.323992 0 0 0 26.998047 21.275391 A 1.3276031 1.323992 0 0 0 28.326172 19.951172 A 1.3276031 1.323992 0 0 0 26.998047 18.626953 z M 26 23 L 26 38.310547 C 26 38.988357 26.009 39.491141 25.720703 39.818359 C 25.44023 40.153369 24.996363 40.320312 24.388672 40.320312 C 23.866681 40.320312 23.338354 40.243712 22.800781 40.087891 L 22.800781 41.664062 C 23.260445 41.858835 23.859472 41.957031 24.599609 41.957031 C 26.929093 41.957031 28 40.694179 28 38.169922 L 28 23 L 26 23 z M 35.769531 23.166016 C 34.289257 23.166016 33.124601 23.46848 32.275391 24.076172 C 31.426181 24.676072 31 25.498986 31 26.542969 C 31 27.127287 31.121762 27.630072 31.363281 28.050781 C 31.61259 28.471491 31.985757 28.848584 32.484375 29.183594 C 32.990785 29.510812 33.841193 29.897715 35.033203 30.341797 C 36.287541 30.824834 37.128141 31.245134 37.556641 31.603516 C 37.992932 31.954107 38.210937 32.378335 38.210938 32.876953 C 38.210938 33.539181 37.937942 34.03411 37.392578 34.361328 C 36.847213 34.680756 36.06946 34.839844 35.056641 34.839844 C 34.402204 34.839844 33.720692 34.751454 33.011719 34.572266 C 32.310537 34.393075 31.650638 34.147574 31.035156 33.835938 L 31.035156 35.634766 C 31.985647 36.172339 33.311346 36.441406 35.009766 36.441406 C 36.614695 36.441406 37.859883 36.117349 38.748047 35.470703 C 39.636212 34.824057 40.082031 33.904901 40.082031 32.712891 C 40.082031 31.863681 39.812964 31.158602 39.275391 30.597656 C 38.745609 30.03671 37.720401 29.480889 36.201172 28.927734 C 35.094862 28.514816 34.346576 28.198614 33.957031 27.980469 C 33.567485 27.762323 33.282707 27.532534 33.103516 27.291016 C 32.932116 27.049497 32.847656 26.756863 32.847656 26.414062 C 32.847656 25.907653 33.081373 25.51092 33.548828 25.222656 C 34.016282 24.934392 34.709578 24.789063 35.628906 24.789062 C 36.672888 24.789062 37.837546 25.054202 39.123047 25.583984 L 39.8125 24.007812 C 38.495836 23.446868 37.148523 23.166016 35.769531 23.166016 z "
     style="color:#000000;font-style:normal;font-variant:normal;font-weight:normal;font-stretch:normal;font-size:23.93369293px;line-height:125%;font-family:'Open Sans';-inkscape-font-specification:'Open Sans';text-align:center;letter-spacing:0px;word-spacing:0px;text-anchor:middle;clip-rule:nonzero;display:inline;overflow:visible;visibility:visible;opacity:1;isolation:auto;mix-blend-mode:normal;color-interpolation:sRGB;color-interpolation-filters:linearRGB;solid-color:#000000;solid-opacity:1;fill:url(#radialGradient4873-8);fill-opacity:1;fill-rule:nonzero;stroke:none;stroke-width:1;stroke-linecap:butt;stroke-linejoin:round;stroke-miterlimit:4;stroke-dasharray:none;stroke-dashoffset:0;stroke-opacity:1;marker:none;color-rendering:auto;image-rendering:auto;shape-rendering:auto;text-rendering:auto;enable-background:accumulate" />
</svg>
